dist/images/logo_nbc.svg

<svg width="30" height="35" viewBox="0 0 30 35" fill="none" xmlns="http://www.w3.org/2000/svg">
<path fill-rule="evenodd" clip-rule="evenodd" d="M3.16415 19.6459C1.42125 19.6459 0.00830078 18.252 0.00830078 16.5326C0.00830078 14.8132 1.42125 13.4191 3.16415 13.4191C3.80068 13.4191 4.39329 13.6051 4.88911 13.925L13.4865 19.6459H3.16415ZM4.03641 12.6399C2.57635 11.7038 2.16129 9.77665 3.10951 8.33521C4.05772 6.89393 6.01008 6.48415 7.46998 7.4202C7.98367 7.74832 8.38898 8.21769 8.63597 8.77048L13.0296 18.6624L4.03641 12.6399ZM26.8262 19.6489C28.5733 19.6489 29.9896 18.2537 29.9896 16.5324C29.9896 14.8112 28.5733 13.4159 26.8262 13.4159C26.1884 13.4159 25.5945 13.6021 25.0976 13.9223L16.4803 19.6491H26.8262V19.6489ZM25.9541 12.6397C27.4174 11.7029 27.8334 9.77364 26.8831 8.33094C25.9328 6.88823 23.9763 6.47813 22.513 7.41514C21.9982 7.74337 21.5919 8.21325 21.3443 8.76684L16.9407 18.6681L25.9541 12.6397ZM16.2492 6.78203C16.0239 6.95439 15.4063 7.04809 15.5403 8.1342L16.8742 17.3487L21.3232 7.30435C22.0344 5.73138 21.3159 3.88854 19.719 3.18832C18.1218 2.48794 16.2504 3.19529 15.5393 4.76825C15.3088 5.27621 15.2211 5.83616 15.2855 6.38918L16.1239 6.38776C16.5991 6.41102 16.8492 6.53575 16.2492 6.78203ZM8.66498 7.30688C7.95538 5.73533 8.67219 3.89408 10.2659 3.19449C11.8598 2.49491 13.7272 3.20162 14.4368 4.77316C14.6871 5.32503 14.7683 5.93722 14.6704 6.53416L13.1046 17.3423L8.66498 7.30688ZM27.9823 31.6697C27.4712 31.8751 26.7115 32.0833 26.0073 32.0833C22.7888 32.0833 20.1794 29.6428 20.1794 26.6325C20.1794 23.622 22.7888 21.1817 26.0073 21.1817C26.7 21.1817 27.4595 21.3484 27.9823 21.5851V23.669C27.396 23.288 26.7092 23.0854 26.0073 23.0864C24.0205 23.0864 22.4095 24.674 22.4095 26.6323C22.4095 28.5905 24.0205 30.1781 26.0073 30.1781C26.7331 30.1781 27.4171 29.9663 27.9823 29.6018V31.6697ZM8.61834 21.5378H10.7579V31.9527L4.17134 26.0116V31.7248H2.03181V21.3126L8.61834 27.2537V21.5378ZM17.9274 26.2809C18.5806 25.8029 19.1493 25.3468 19.144 24.1437C19.1368 22.5603 17.8398 21.528 16.231 21.528H11.9854V31.7347H16.7475C18.4341 31.7347 19.7174 30.471 19.7174 28.8104C19.7174 27.1501 18.3277 26.4253 17.9274 26.2809ZM14.1365 23.0711L15.7268 23.0712C16.4714 23.0712 17.0749 23.6654 17.0749 24.3984C17.0749 25.1312 16.4714 25.7255 15.7268 25.7255H14.1365V23.0711ZM16.0726 30.2026H14.1368V27.2504L16.0728 27.2417C16.9029 27.2417 17.5758 27.9046 17.5758 28.7222C17.5758 29.5399 16.9028 30.2026 16.0726 30.2026Z" fill="#272727"/>
</svg>

<svg width="30" height="35" viewBox="0 0 30 35" fill="none" xmlns="http://www.w3.org/2000/svg"><path fill-rule="evenodd" clip-rule="evenodd" d="M3.164 19.646c-1.743 0-3.156-1.394-3.156-3.113 0-1.72 1.413-3.114 3.156-3.114.637 0 1.23.186 1.725.506l8.598 5.72H3.163zm.872-7.006a3.088 3.088 0 0 1-.926-4.305c.948-1.441 2.9-1.85 4.36-.915.514.328.919.798 1.166 1.35l4.394 9.892-8.994-6.022zm22.79 7.009c1.747 0 3.164-1.395 3.164-3.117 0-1.72-1.417-3.116-3.164-3.116-.638 0-1.232.186-1.728.506L16.48 19.65h10.346zm-.872-7.01a3.089 3.089 0 0 0 .93-4.308c-.951-1.443-2.908-1.853-4.371-.916a3.11 3.11 0 0 0-1.169 1.352l-4.403 9.901 9.013-6.028zM16.25 6.783c-.225.172-.843.266-.709 1.352l1.334 9.215 4.45-10.045c.71-1.573-.008-3.415-1.605-4.116-1.597-.7-3.469.007-4.18 1.58a3.064 3.064 0 0 0-.253 1.621l.838-.001c.475.023.725.148.125.394zm-7.584.525c-.71-1.572.007-3.413 1.6-4.113 1.595-.7 3.462.008 4.172 1.58.25.551.331 1.163.233 1.76l-1.565 10.808-4.44-10.035zM27.982 31.67c-.51.205-1.27.413-1.975.413-3.218 0-5.828-2.44-5.828-5.45 0-3.011 2.61-5.451 5.828-5.451.693 0 1.452.166 1.975.403v2.084a3.616 3.616 0 0 0-1.975-.583c-1.987 0-3.598 1.588-3.598 3.546 0 1.958 1.611 3.546 3.598 3.546.726 0 1.41-.212 1.975-.576v2.068zM8.618 21.538h2.14v10.415L4.17 26.012v5.713h-2.14V21.313l6.587 5.94v-5.715zm9.31 4.743c.653-.478 1.221-.934 1.216-2.137-.007-1.584-1.304-2.616-2.913-2.616h-4.246v10.207h4.762c1.687 0 2.97-1.264 2.97-2.925 0-1.66-1.39-2.385-1.79-2.53zm-3.792-3.21h1.59c.745 0 1.349.594 1.349 1.327s-.604 1.328-1.348 1.328h-1.59V23.07zm1.937 7.132h-1.936V27.25l1.936-.008c.83 0 1.503.663 1.503 1.48 0 .818-.673 1.48-1.503 1.48z" fill="#272727"/></svg>
